X: 24577
T: Lusignac
R: waltz
M: 3/4
K: Gminor
D GA|BA cB AE|D3 D GA|Bd fd cB|E3 E Bc|
dB cd cB|gB cd cB|BG AB AG|^F3 D GA|
BA cB AE|D3 D GA|Bd fd cB|E3 E Bc|
dB cd cB|BG AB AG|D^F Ac BA|[G3d3] D GA|
BA cB AE|D3 D GA|Bd fd cB|E3 E Bc|
dB cd cB|dB cd cB|BG AB AG|^F3 D GA|
BA cB AE|D3 D GA|Bd fd cB|E3 E Bc|
dB cd cB|BG AB AG|D^F Ac BA|GA Bd ga|
b3 a- ab|a2 g4|fg f2 e2|d6|
dc cB BA|cB AB cd|ed cB AG|^FA Bd ga|
b3 a- ab|a2 g4|fg f2 e2|d6|
dc cB BA|cB BA AG|BA AG G^F|^F3 z3||
b3 a2b|a2 g4|fg f2e2|d6|
dcc BBA|cBB AAG|BAA GG^F|^F3||

